raw-svg/cart-arrow-down.svg

<svg fill="none" height="24" viewBox="0 0 24 24" width="24" xmlns="http://www.w3.org/2000/svg"><path clip-rule="evenodd" d="m3.25 4c0-.41421.33578-.75.74999-.75h1.99998c.36246 0 .67306.25922.7379.61584l1.88801 10.38416h8.78842l1.8579-7.4319c.1005-.40185.5077-.64617.9095-.54571.4019.10046.6462.50767.5457.90951l-1.9999 8c-.0835.3339-.3835.5681-.7276.5681h-9.99995c-.36246 0-.67305-.2592-.73789-.6158l-1.88801-10.3842h-1.37406c-.41421 0-.74999-.33579-.74999-.75zm4.99995 14.25c0 .83.66999 1.5 1.49999 1.5.82996 0 1.49996-.67 1.49996-1.5s-.67-1.5-1.49996-1.5c-.83 0-1.49999.67-1.49999 1.5zm6.49995 0c0 .83.67 1.5 1.5 1.5s1.5-.67 1.5-1.5-.67-1.5-1.5-1.5-1.5.67-1.5 1.5zm-1-13.25c0-.41421-.3358-.75-.75-.75s-.75.33579-.75.75v3.18934l-.7197-.71967c-.2928-.29289-.7677-.29289-1.0606 0s-.2929.76777 0 1.06066l2 1.99997c.2929.2929.7677.2929 1.0606 0l2-1.99997c.2929-.29289.2929-.76777 0-1.06066s-.7677-.29289-1.0606 0l-.7197.71967z" fill="#000" fill-rule="evenodd"/></svg>

<svg width="24" height="24" viewBox="0 0 24 24" fill="none" xmlns="http://www.w3.org/2000/svg">
<path fill-rule="evenodd" clip-rule="evenodd" d="M3.25 4C3.25 3.58579 3.58578 3.25 3.99999 3.25H5.99997C6.36243 3.25 6.67303 3.50922 6.73787 3.86584L8.62588 14.25H17.4143L19.2722 6.8181C19.3727 6.41625 19.7799 6.17193 20.1817 6.27239C20.5836 6.37285 20.8279 6.78006 20.7274 7.1819L18.7275 15.1819C18.644 15.5158 18.344 15.75 17.9999 15.75H7.99995C7.63749 15.75 7.3269 15.4908 7.26206 15.1342L5.37405 4.75H3.99999C3.58578 4.75 3.25 4.41421 3.25 4ZM8.24995 18.25C8.24995 19.08 8.91994 19.75 9.74994 19.75C10.5799 19.75 11.2499 19.08 11.2499 18.25C11.2499 17.42 10.5799 16.75 9.74994 16.75C8.91994 16.75 8.24995 17.42 8.24995 18.25ZM14.7499 18.25C14.7499 19.08 15.4199 19.75 16.2499 19.75C17.0799 19.75 17.7499 19.08 17.7499 18.25C17.7499 17.42 17.0799 16.75 16.2499 16.75C15.4199 16.75 14.7499 17.42 14.7499 18.25ZM13.7499 5C13.7499 4.58579 13.4141 4.25 12.9999 4.25C12.5857 4.25 12.2499 4.58579 12.2499 5V8.18934L11.5302 7.46967C11.2374 7.17678 10.7625 7.17678 10.4696 7.46967C10.1767 7.76256 10.1767 8.23744 10.4696 8.53033L12.4696 10.5303C12.7625 10.8232 13.2373 10.8232 13.5302 10.5303L15.5302 8.53033C15.8231 8.23744 15.8231 7.76256 15.5302 7.46967C15.2373 7.17678 14.7625 7.17678 14.4696 7.46967L13.7499 8.18934V5Z" fill="black"/>
</svg>
